lib/preview/nrk-logo-preview-nrk-sport-with-bg.svg

<svg width="91" height="24" viewBox="0 0 91 24" fill="none" xmlns="http://www.w3.org/2000/svg">
<rect width="91" height="24" fill="#E81502"/>
<path d="M6.00425 18V6.00109H9.94144V18H6.00425ZM15.2981 7.91078L17.5623 18H13.2534L10.5497 6.00109H12.9664C13.5206 5.9939 14.0583 6.18925 14.4788 6.55039C14.8999 6.89638 15.1892 7.3767 15.2981 7.91078ZM18.1538 18V6.00109H22.091V18H18.1538ZM25.0647 10.5641C24.6405 10.5682 24.223 10.4572 23.8568 10.243C23.4955 10.0341 23.1953 9.73396 22.9865 9.3726C22.772 9.00633 22.661 8.58876 22.6652 8.16432C22.6604 7.74246 22.7715 7.32738 22.9865 6.96443C23.1976 6.60699 23.4974 6.31009 23.8568 6.10252C24.2231 5.8885 24.6405 5.77751 25.0647 5.78138C25.4865 5.77684 25.9014 5.88793 26.2645 6.10252C26.6203 6.31191 26.9169 6.60856 27.1263 6.96443C27.3411 7.32748 27.4522 7.74249 27.4476 8.16432C27.4515 8.58873 27.3405 9.00623 27.1263 9.3726C26.9191 9.73238 26.6222 10.0323 26.2645 10.243C25.9013 10.458 25.4861 10.5691 25.0642 10.5641H25.0647ZM28.0559 18V6.00109H31.9934V18H28.0559ZM36.978 12.5582C36.9891 12.5699 37.0735 12.7079 37.2314 12.9723C37.3893 13.2367 37.5949 13.5747 37.8482 13.9863C38.1017 14.3977 38.3691 14.8343 38.6506 15.296C38.932 15.7577 39.1969 16.1944 39.4451 16.6058C39.6923 17.0172 39.974 17.4819 40.29 18H35.9641C35.6935 17.5606 35.4484 17.1635 35.2287 16.8086C35.0091 16.4537 34.7755 16.0706 34.5281 15.6594C34.2801 15.2485 34.0348 14.8485 33.7925 14.4595C33.5501 14.0704 33.3418 13.7296 33.1675 13.4371C32.9925 13.1443 32.8713 12.9471 32.8039 12.8455C32.6368 12.5934 32.5379 12.3023 32.5169 12.0005C32.5337 11.7109 32.6269 11.431 32.787 11.1891C32.8546 11.0764 32.9785 10.8764 33.1588 10.5891C33.339 10.3018 33.5503 9.96105 33.7925 9.56672C34.0347 9.17239 34.2799 8.7696 34.5281 8.35837C34.7763 7.94715 35.0098 7.56124 35.2287 7.20071C35.4488 6.84055 35.6939 6.44059 35.9641 6.00081H40.29L36.9439 11.4595C36.8403 11.6216 36.782 11.8083 36.7749 12.0005C36.786 12.2023 36.8565 12.3963 36.9774 12.5582H36.978Z" fill="white"/>
<path d="M51.3701 12.3845C51.124 12.1337 50.8383 11.9251 50.5244 11.7671C50.1955 11.6006 49.8533 11.462 49.5012 11.3527C49.1404 11.24 48.7683 11.144 48.3849 11.0649C48.0914 10.9974 47.8179 10.9299 47.5645 10.8622C47.3317 10.8021 47.1052 10.7199 46.888 10.6167C46.7014 10.5283 46.5278 10.4145 46.3724 10.2785C46.226 10.1494 46.1128 9.98709 46.0424 9.80514C45.9645 9.59111 45.9274 9.36445 45.9327 9.13678C45.929 8.90103 45.966 8.66642 46.0424 8.44333C46.1118 8.24657 46.2278 8.06955 46.3806 7.92744C46.5389 7.7825 46.7187 7.66282 46.9134 7.57257C47.1362 7.47099 47.3727 7.40258 47.6153 7.36958C47.9038 7.32845 48.1949 7.30868 48.4863 7.31039C48.7519 7.31091 49.0172 7.32494 49.2813 7.35241C49.5484 7.38029 49.8138 7.42272 50.0763 7.47952C50.3312 7.53482 50.5825 7.60542 50.8289 7.69094C51.0596 7.77028 51.2831 7.86923 51.4969 7.98667L51.7338 6.49854C51.4933 6.37306 51.2412 6.27112 50.9811 6.19411C50.7161 6.11536 50.4483 6.0476 50.1777 5.99084C49.9038 5.93424 49.6272 5.892 49.3489 5.86428C49.0671 5.83609 48.7795 5.82199 48.4863 5.82199C47.8882 5.81549 47.2917 5.88357 46.7104 6.02467C46.2154 6.14422 45.7477 6.35669 45.332 6.65077C44.949 6.92553 44.6408 7.29172 44.4356 7.71603C44.2166 8.19296 44.1096 8.71363 44.1226 9.23825C44.113 9.64425 44.1789 10.0485 44.3171 10.4304C44.4385 10.7506 44.6258 11.0417 44.8669 11.2848C45.1053 11.5228 45.379 11.7225 45.6784 11.8768C45.996 12.0404 46.3272 12.1763 46.6681 12.283C47.0233 12.3957 47.387 12.4916 47.7591 12.5705C48.0635 12.638 48.3454 12.7085 48.6048 12.7819C48.846 12.8484 49.0809 12.9361 49.3067 13.0441C49.5008 13.1357 49.6802 13.2554 49.8394 13.3993C49.9905 13.5412 50.1088 13.7144 50.1862 13.9067C50.2758 14.1384 50.3189 14.3856 50.313 14.634C50.3175 14.8981 50.2774 15.1611 50.1946 15.412C50.1204 15.629 50.0056 15.8299 49.8564 16.004C49.7063 16.1755 49.5219 16.3137 49.3151 16.4096C49.0813 16.5173 48.8336 16.5914 48.5791 16.6298C48.2686 16.6774 47.9548 16.7001 47.6407 16.6974C47.3353 16.6967 47.0303 16.6769 46.7273 16.6382C46.4116 16.5988 46.0959 16.5451 45.7802 16.4773C45.469 16.411 45.1614 16.3292 44.8584 16.232C44.5596 16.1368 44.2749 16.0382 44.0043 15.9363L44.2242 17.6108C44.5125 17.7184 44.806 17.8114 45.1036 17.8896C45.3739 17.9605 45.6477 18.017 45.924 18.0587C46.1886 18.098 46.4535 18.129 46.7189 18.1517C46.9842 18.1744 47.252 18.1857 47.522 18.1855C48.1275 18.1893 48.7316 18.1269 49.3236 17.9995C49.8476 17.8896 50.3466 17.6831 50.795 17.3906C51.2135 17.1137 51.5518 16.7316 51.7761 16.2828C52.0232 15.7511 52.142 15.1689 52.1228 14.5829C52.132 14.1464 52.0661 13.7115 51.9282 13.2972C51.8103 12.9563 51.6199 12.6449 51.3701 12.3845Z" fill="white"/>
<path d="M60.6726 9.72057C60.0656 9.34892 59.3628 9.16366 58.6514 9.18779C58.2293 9.18988 57.8089 9.24374 57.3999 9.34818C56.9578 9.46075 56.5316 9.62848 56.1313 9.84741C56.0518 9.89026 55.9729 9.93847 55.8945 9.98667V9.20469L54.1694 9.47533V21.5513H55.8945V17.7646C55.9061 17.7694 55.9168 17.7748 55.9284 17.7799C56.2409 17.9096 56.5672 18.0032 56.9009 18.059C57.2949 18.1239 57.6937 18.155 58.093 18.152C58.8546 18.1651 59.6055 17.9722 60.2664 17.5935C60.9155 17.2089 61.443 16.6492 61.7886 15.9786C62.188 15.179 62.3827 14.2927 62.3552 13.3993C62.3711 12.6438 62.2239 11.8939 61.9236 11.2005C61.6593 10.5961 61.2245 10.0819 60.6726 9.72057ZM60.2244 15.3781C60.0212 15.8273 59.6806 16.2003 59.2518 16.4434C58.7752 16.6932 58.2421 16.8156 57.7043 16.7989C57.4466 16.7991 57.1893 16.7792 56.9347 16.7394C56.6675 16.6968 56.4044 16.6319 56.1482 16.5452C56.067 16.517 55.9791 16.4849 55.8945 16.4539V11.1162C55.9168 11.1058 55.9399 11.0923 55.9622 11.0821C56.2101 10.9693 56.4412 10.8734 56.6556 10.7943C56.8585 10.7185 57.068 10.6619 57.2814 10.6252C57.4714 10.5924 57.6637 10.5755 57.8565 10.5744C58.3778 10.5571 58.8952 10.6705 59.3615 10.9042C59.7694 11.1262 60.0887 11.4813 60.2664 11.9103C60.4814 12.4592 60.5822 13.0463 60.5624 13.6355C60.5804 14.2342 60.4649 14.8295 60.2244 15.3781Z" fill="white"/>
<path d="M70.6008 9.72896C69.8962 9.35446 69.1068 9.16807 68.3091 9.18775C67.5039 9.16928 66.7079 9.36169 66.0001 9.74589C65.3467 10.1115 64.8123 10.6576 64.4609 11.3188C64.0792 12.0606 63.8902 12.8864 63.9112 13.7203C63.8897 14.5478 64.0666 15.3684 64.4271 16.1136C64.7512 16.764 65.268 17.2987 65.9071 17.6445C66.5951 18.0049 67.3631 18.1852 68.1396 18.1686C68.9525 18.1847 69.756 17.9927 70.4737 17.6107C71.1439 17.2451 71.6934 16.6927 72.0554 16.0206C72.4481 15.2701 72.6431 14.432 72.622 13.5853C72.6412 12.7787 72.461 11.9799 72.0974 11.2597C71.7605 10.613 71.2398 10.0804 70.6008 9.72896ZM70.4991 15.395C70.309 15.8345 69.987 16.2039 69.5776 16.4521C69.1661 16.6876 68.6985 16.8074 68.2245 16.7989C67.7595 16.8104 67.3012 16.6869 66.905 16.4434C66.513 16.183 66.2069 15.8123 66.0254 15.3781C65.7952 14.8211 65.6857 14.2216 65.7041 13.6191C65.6841 13.0329 65.7938 12.4494 66.0254 11.9105C66.2152 11.487 66.5314 11.1325 66.9306 10.8957C67.3572 10.6607 67.8389 10.544 68.3257 10.5575C68.7059 10.548 69.0836 10.6201 69.4335 10.7689C69.74 10.9073 70.0075 11.1195 70.2119 11.3865C70.4298 11.6766 70.5878 12.0072 70.6767 12.359C70.7824 12.7706 70.8335 13.1942 70.8289 13.6191C70.8486 14.228 70.7363 14.8339 70.4991 15.395Z" fill="white"/>
<path d="M78.2537 9.31433C77.9375 9.39936 77.6354 9.53043 77.3573 9.70334C77.0688 9.88358 76.8022 10.0964 76.5624 10.3376C76.5223 10.3776 76.4837 10.4222 76.4439 10.4642V9.20466L74.7188 9.45837V17.9997H76.4439V11.6098C76.5721 11.5202 76.7048 11.4372 76.8414 11.3612C77.0106 11.2678 77.1858 11.1858 77.366 11.1159C77.5406 11.0483 77.7181 10.9891 77.8985 10.9383C78.0842 10.8866 78.2737 10.8497 78.4652 10.8281C78.6701 10.8056 78.8766 10.8 79.0825 10.8115L79.2854 9.22132C78.9388 9.19667 78.5904 9.22806 78.2537 9.31433Z" fill="white"/>
<path d="M85.5942 16.5875C85.515 16.6044 85.4276 16.621 85.3318 16.6382L85.0445 16.6887C84.9522 16.7054 84.859 16.7167 84.7654 16.7228C84.6749 16.7284 84.5903 16.7313 84.5118 16.7313C84.2526 16.7382 83.9952 16.6861 83.7591 16.579C83.5562 16.4827 83.3879 16.3262 83.277 16.1308C83.1586 15.9101 83.1003 15.6621 83.1079 15.4117V10.7269H85.4927L85.6788 9.37382H83.1079V6.70176L81.3827 7.31066V9.37382H80.0804L79.894 10.7269H81.3827V15.7672C81.375 16.1034 81.4266 16.4383 81.535 16.7566C81.622 17.0084 81.757 17.2409 81.9324 17.4413C82.0932 17.6201 82.2889 17.764 82.5075 17.8642C82.731 17.9671 82.9668 18.0411 83.2091 18.0843C83.449 18.1285 83.6925 18.1512 83.9364 18.152C84.1168 18.152 84.2945 18.1463 84.4694 18.1348C84.6444 18.1233 84.8051 18.1065 84.9515 18.0843C85.0978 18.0615 85.2362 18.0361 85.3659 18.0079C85.4956 17.9797 85.6052 17.955 85.6954 17.9321L85.7972 16.528C85.7314 16.5535 85.6634 16.5734 85.5942 16.5875Z" fill="white"/>
</svg>

<svg xmlns="http://www.w3.org/2000/svg" viewBox="0 0 91 24"><path fill="#E81502" d="M0 0h91v24H0z"/><path fill="#fff" d="M6.004 18V6.001h3.937V18H6.004Zm9.294-10.09L17.562 18h-4.309L10.55 6.001h2.416a2.276 2.276 0 0 1 1.513.55c.42.345.71.826.82 1.36ZM18.154 18V6.001h3.937V18h-3.937Zm6.91-7.436a2.382 2.382 0 0 1-2.4-2.4 2.303 2.303 0 0 1 .323-1.2 2.411 2.411 0 0 1 3.278-.861c.355.209.652.506.861.861.215.363.326.778.322 1.2a2.4 2.4 0 0 1-1.183 2.079 2.303 2.303 0 0 1-1.2.321ZM28.057 18V6.001h3.937V18h-3.937Zm8.922-5.442c.011.012.096.15.253.414.158.265.364.603.617 1.014a327.152 327.152 0 0 1 1.597 2.62c.247.411.529.876.845 1.394h-4.326c-.27-.44-.516-.837-.735-1.191-.22-.355-.453-.738-.7-1.15-.249-.41-.494-.81-.737-1.2-.242-.389-.45-.73-.625-1.022-.175-.293-.296-.49-.363-.591a1.75 1.75 0 0 1-.287-.845c.017-.29.11-.57.27-.812.068-.113.191-.313.372-.6a182.106 182.106 0 0 0 1.37-2.23c.247-.412.48-.798.7-1.158l.735-1.2h4.326l-3.346 5.458a1.078 1.078 0 0 0-.17.542c.012.201.082.395.203.557h.001ZM51.37 12.384a3.201 3.201 0 0 0-.846-.617 6.593 6.593 0 0 0-1.023-.414 11.61 11.61 0 0 0-1.116-.288 24.232 24.232 0 0 1-.82-.203 3.775 3.775 0 0 1-.677-.245 2.238 2.238 0 0 1-.516-.339 1.216 1.216 0 0 1-.33-.473 1.83 1.83 0 0 1-.11-.668c-.003-.236.034-.47.11-.694a1.29 1.29 0 0 1 .339-.516c.158-.144.338-.264.532-.354.223-.102.46-.17.702-.203.289-.042.58-.061.871-.06a7.384 7.384 0 0 1 1.59.17c.255.055.507.125.753.21.23.08.454.18.668.297l.237-1.488a4.213 4.213 0 0 0-.753-.305 10.093 10.093 0 0 0-.803-.203 8.026 8.026 0 0 0-.83-.127 8.663 8.663 0 0 0-.862-.042 7.197 7.197 0 0 0-1.776.203c-.495.12-.962.332-1.378.626a2.825 2.825 0 0 0-.896 1.065 3.443 3.443 0 0 0-.313 1.522c-.01.406.056.81.194 1.192.121.32.309.612.55.855.238.238.512.438.811.592.318.163.65.3.99.406.355.113.719.209 1.091.287.304.068.586.139.846.212.241.066.476.154.702.262.194.092.373.211.532.355.151.142.27.315.347.508.09.231.133.479.127.727.005.264-.036.527-.118.778a1.81 1.81 0 0 1-.339.592c-.15.171-.334.31-.54.406a2.734 2.734 0 0 1-.737.22 5.86 5.86 0 0 1-.938.067c-.306 0-.61-.02-.914-.059-.315-.04-.631-.093-.947-.16a9.493 9.493 0 0 1-.922-.246 17.5 17.5 0 0 1-.854-.296l.22 1.675c.289.107.582.2.88.279.27.07.544.127.82.169.265.039.53.07.795.093.265.022.533.034.803.034A8.315 8.315 0 0 0 49.324 18a4.314 4.314 0 0 0 1.471-.61c.419-.276.757-.658.981-1.107a3.743 3.743 0 0 0 .347-1.7 3.817 3.817 0 0 0-.195-1.286 2.498 2.498 0 0 0-.558-.913ZM60.673 9.72a3.635 3.635 0 0 0-2.022-.532 5.162 5.162 0 0 0-1.251.16 5.443 5.443 0 0 0-1.505.639v-.782l-1.726.27v12.076h1.726v-3.786l.033.015c.313.13.64.223.973.279a7.01 7.01 0 0 0 1.192.093 4.225 4.225 0 0 0 2.173-.559 4.015 4.015 0 0 0 1.523-1.614 5.4 5.4 0 0 0 .566-2.58 5.254 5.254 0 0 0-.431-2.198 3.395 3.395 0 0 0-1.251-1.48Zm-.449 5.658c-.203.45-.543.822-.972 1.065-.477.25-1.01.373-1.548.356a4.822 4.822 0 0 1-1.81-.345v-5.338c.023-.01.046-.024.068-.034.248-.113.48-.209.694-.288a3.467 3.467 0 0 1 1.2-.22 3.128 3.128 0 0 1 1.505.33c.408.222.728.577.905 1.006.215.55.316 1.136.296 1.726a4.038 4.038 0 0 1-.338 1.742ZM70.6 9.729a4.64 4.64 0 0 0-2.29-.541 4.618 4.618 0 0 0-2.31.558 3.9 3.9 0 0 0-1.54 1.573 4.975 4.975 0 0 0-.549 2.401 5.186 5.186 0 0 0 .516 2.394c.324.65.841 1.185 1.48 1.53a4.6 4.6 0 0 0 2.233.525 4.767 4.767 0 0 0 2.334-.558 3.94 3.94 0 0 0 1.581-1.59c.393-.75.588-1.589.567-2.436a4.901 4.901 0 0 0-.525-2.325 3.696 3.696 0 0 0-1.496-1.531Zm-.1 5.666c-.191.44-.513.809-.922 1.057a2.63 2.63 0 0 1-1.353.347 2.406 2.406 0 0 1-1.32-.356 2.382 2.382 0 0 1-.88-1.065 4.264 4.264 0 0 1-.32-1.759c-.02-.586.089-1.17.32-1.708a2.25 2.25 0 0 1 .906-1.015 2.734 2.734 0 0 1 1.395-.339c.38-.009.758.063 1.108.212.306.138.573.35.778.617.218.29.376.621.465.973.105.412.156.835.152 1.26a4.21 4.21 0 0 1-.33 1.776ZM78.254 9.314a3.34 3.34 0 0 0-.897.39c-.288.18-.555.392-.795.634-.04.04-.078.084-.118.126v-1.26l-1.725.254V18h1.725v-6.39a4.313 4.313 0 0 1 .922-.494c.175-.068.352-.127.532-.178a3.63 3.63 0 0 1 1.184-.127l.203-1.59a3.233 3.233 0 0 0-1.031.093ZM85.594 16.587c-.079.017-.166.034-.262.051l-.287.05a2.47 2.47 0 0 1-.28.035c-.09.005-.175.008-.253.008a1.712 1.712 0 0 1-.753-.152 1.093 1.093 0 0 1-.482-.448 1.43 1.43 0 0 1-.17-.72v-4.684h2.386l.186-1.353h-2.571V6.702l-1.725.609v2.063H80.08l-.186 1.353h1.489v5.04c-.008.336.044.671.152.99.087.251.222.484.397.684.161.18.357.323.575.423.224.103.46.177.702.22.24.044.483.067.727.068.18 0 .358-.006.533-.017a5.742 5.742 0 0 0 .897-.127c.13-.028.24-.053.33-.076l.101-1.404a1.256 1.256 0 0 1-.203.06Z"/></svg>
